**kern	**kern	**dynam
*part1	*part1	*part1
*staff2	*staff1	*
*I"Piano	*	*
*clefF4	*clefG2	*
*k[f#]	*k[f#]	*
=1	=1	=1
*	*^	*
4.GG 4.D 4.A	(16ddLL	4.c 4.f#	>
.	16cc#X	.	.
.	16ee	.	.
.	16dd	.	.
.	16cc#	.	.
.	16ddJJ)	.	.
*	*v	*v	*
=	=	=
4.GG 4.D 4.G	(16BLL	] >
.	16d	.
.	16g	.
.	16d	.
.	16b	.
.	16gJJ)	.
=	=	=
*	*^	*
4.GG 4.D 4.A	(16ddLL	4.c 4.f#	] >
.	16cc#X	.	.
.	16ee	.	.
.	16dd	.	.
.	16cc#	.	.
.	16ddJJ)	.	.
=	=	=	=
4.GG 4.D	(16gLL	(4B	]
.	16d	.	.
.	16b	.	.
.	16g	.	.
.	16d	8c)	.
.	16aJJ)	.	.
=	=	=	=
4.GG 4.D	(16gLL	(4B	.
.	16d	.	.
.	16b	.	.
.	16g	.	.
.	16d	8c)	.
.	16aJJ)	.	.
*	*v	*v	*
=	=	=
*^	*	*
(16DLL	4.GG	[4.B [4.g	.
16BB	.	.	.
16G	.	.	.
16D	.	.	.
16E	.	.	.
32DL	.	.	.
32BBJJJ)	.	.	.
*v	*v	*	*
=	=	=
4.GGG 4.DD 4.GG	4.B] 4.g]	.
==	==	==
*-	*-	*-
!!!system-decoration: {(s1,s2)}
